X: 1
T: String Quartet in F Major opus 77 no 2 mvt 2
C: Franz Joseph Haydn
%%abc-version 2.0
%%abcx-abcm2ps-target-version 5.9.1 (29 Sep 2008)
%%abc-creator hum2abc beta
%%abcx-conversion-date 2021/02/14 14:38:11
%%abc-copyright Copyright (c) 1994, 2000 Center for Computer Assisted Research in the Humanities
%%abc-edited-by Frances Bennion
%%abcx-initial-encoding-date 1997/04/15
%%gracespace 0 6 6
%%humdrum-veritas 785507505
%%humdrum-veritas-data 306731162
%%linebreak <none>
%%barnumbers 0
L: 1/4
M: 3/4
N: Derived from op77n2-02.krn
Q: "Menuetto: Presto ma non troppo"
%%staves [1 2 3 4]
V: 1
V: 2
V: 3 clef=alto
V: 4 clef=bass
K: F
[V:1]z z c/A/ [I:setbarnb1] |
[V:2]z2 z |
[V:3]z2 z |
[V:4]z2 z |
[V:1]F f/e/ f |
[V:2]A, A/B/ A |
[V:3]C C C |
[V:4]F, F, F, |
[V:1]g c g |
[V:2]B z B |
[V:3]C z C |
[V:4]E, z E |
[V:1]c g c |
[V:2]B B B |
[V:3]G G G |
[V:4]E E E |
[V:1]a f z |
[V:2]A z2 |
[V:3]F z2 |
[V:4]F z C, |
[V:1]z3 |
[V:2]z3 |
[V:3]z3 |
[V:4]F,, C, F,, |
[V:1]z a/f/ c |
[V:2]z A/F/ C |
[V:3]z z C |
[V:4]C, F,, C, |
[V:1]a/f/ c a/f/ |
[V:2]A/F/ C A/F/ |
[V:3]F, C F, |
[V:4]F,, C, F,, |
[V:1]c a/f/ A |
[V:2]C A/F/ A, |
[V:3]C F, ^C- |
[V:4]C, F,, _D, |
[V:1]a/f/ A a/f/ |
[V:2]A/F/ A, A/F/ |
[V:3]C D D- |
[V:4]F,, D, F,, |
[V:1]d/f/ a f/d/ |
[V:2]D/F/ A F/D/ |
[V:3]D F A |
[V:4]F, F,, F, |
[V:1]e/g/ e/c/ =B/d/ |
[V:2]E G/E/ D/=B,/ |
[V:3]G2 F |
[V:4]G,, G, G,, |
[V:1]c z G/c/ |
[V:2]C z G |
[V:3]E z2 |
[V:4]C, C,, z |
[V:1]e3- |
[V:2]C G C |
[V:3]c3- |
[V:4]z3 |
[V:1]e3 |
[V:2]G C G |
[V:3]c2 G, |
[V:4]z3 |
[V:1]_e3- |
[V:2]c3- |
[V:3]C, G, C, |
[V:4]z3 |
[V:1]e2 _E/_e/ |
[V:2]c2 G |
[V:3]G, C, C |
[V:4]z z C, |
[V:1]_e3 |
[V:2]_A3- |
[V:3]C F, C |
[V:4]F,, C, F,, |
[V:1]d2 c- |
[V:2]A2 _E |
[V:3]F,2 ^F, |
[V:4]C, F,, ^F,, |
[V:1]c d =B |
[V:2]D3 |
[V:3]G,2 F |
[V:4]G,, G, G,, |
[V:1]c z g |
[V:2]E E E |
[V:3][G,E] [G,E] [G,E] |
[V:4]C,, C, C, |
[V:1]=B g B |
[V:2]F F F |
[V:3][DG,] [G,D] [G,D] |
[V:4]C, C, C, |
[V:1]e G c' |
[V:2]E E e |
[V:3][EG,] [G,E] [GG,] |
[V:4]C, C, C, |
[V:1]=b f' b |
[V:2]f f f |
[V:3]d d d |
[V:4]C C C |
[V:1]c' z z |
[V:2]e z z |
[V:3]c z G/E/ |
[V:4]C z E,/G,/ |
[V:1]z3 |
[V:2]z3 |
[V:3]C G/E/ C |
[V:4]B, E,/G,/ B, |
[V:1]z z c'/a/ |
[V:2]z z A/c/ |
[V:3]A F z |
[V:4]F, A, z |
[V:1]f c'/a/ f |
[V:2]_e A/c/ e |
[V:3]z3 |
[V:4]z3 |
[V:1]d' b z |
[V:2]B d z |
[V:3]z z d/A/ |
[V:4]z z D/A,/ |
[V:1]z d'/a/ ^f |
[V:2]z d/A/ ^F |
[V:3]^F z2 |
[V:4]^F, z2 |
[V:1]z z d'/b/ |
[V:2]z z d/B/ |
[V:3]d/B/ G z |
[V:4]D/B,/ G, z |
[V:1]g z2 |
[V:2]G z2 |
[V:3]z B/G/ E |
[V:4]z B,/G,/ E, |
[V:1]b/g/ e z |
[V:2]B/G/ E z |
[V:3]z z c/A/ |
[V:4]z z C/A,/ |
[V:1]z c'/a/ f/c/ |
[V:2]z c/A/ F |
[V:3]F z2 |
[V:4]F, z2 |
[V:1]B/c/ B/G/ A/F/ |
[V:2]G2 F/A/ |
[V:3]C3- |
[V:4]E,2 F, |
[V:1]E/C/ =B,/C/ E/G/ |
[V:2]G z2 |
[V:3]C z2 |
[V:4]C, z2 |
[V:1]B2 B//A//B//c// |
[V:2]z3 |
[V:3]z z G |
[V:4]z3 |
[V:1]_d3 |
[V:2]B3- |
[V:3]C G C |
[V:4]z3 |
[V:1]c z B |
[V:2]B z2 |
[V:3]G C z |
[V:4]z z G,, |
[V:1]f3 |
[V:2]B3- |
[V:3]G3- |
[V:4]C,, G,, C,, |
[V:1]e3 |
[V:2]B3 |
[V:3]G3 |
[V:4]G,, C,, z |
[V:1]z3 |
[V:2]z3 |
[V:3]z3 |
[V:4]G,, C,, z |
[V:1]z3 |
[V:2]z3 |
[V:3]z3 |
[V:4]G,, C,, z |
[V:1]F3 |
[V:2]B,3- |
[V:3]_D,3 |
[V:4]G,,3 |
[V:1]E2 c/A/ |
[V:2]B,2 z |
[V:3]G,2 z |
[V:4]C,,2 z |
[V:1]F f/e/ f |
[V:2]A, A/B/ A |
[V:3]F, C C |
[V:4]F, F, F, |
[V:1]g c g |
[V:2]B z B |
[V:3]C z C |
[V:4]E, z E |
[V:1]c g c |
[V:2]B B B |
[V:3]G G G |
[V:4]E E E |
[V:1]a f z |
[V:2]A z2 |
[V:3]F z2 |
[V:4]F z C, |
[V:1]z3 |
[V:2]z3 |
[V:3]z3 |
[V:4]F,, C, F,, |
[V:1]z a/f/ c |
[V:2]z3 |
[V:3]z z C |
[V:4]C, F,, C, |
[V:1]a/f/ c a/f/ |
[V:2]z z A- |
[V:3]F, A, F, |
[V:4]F,, C, F,, |
[V:1]c a/f/ c |
[V:2]A f A |
[V:3]_E,3 |
[V:4]_E,, C, E,, |
[V:1]b/f/ B b/f/ |
[V:2]B f F- |
[V:3]D, z F/G/ |
[V:4]D,, D, D,, |
[V:1]=b/f/ =B/f/ b/f/ |
[V:2]F f F/G/ |
[V:3]_A2 _A,/G,/ |
[V:4]_D,, _D, D,, |
[V:1]c'/a/ f/a/ g/e/ |
[V:2]A A/F/ E/G/ |
[V:3]F, C B, |
[V:4]C,, C, C,, |
[V:1]f z c/f/ |
[V:2]F z c |
[V:3]A, z2 |
[V:4]F,, F, z |
[V:1]a3- |
[V:2]F c F |
[V:3]f3- |
[V:4]z3 |
[V:1]a3 |
[V:2]c F z |
[V:3]f2 C |
[V:4]z3 |
[V:1]_a3- |
[V:2]f3- |
[V:3]F, C F, |
[V:4]z3 |
[V:1]a2 c/_a/ |
[V:2]f2 c |
[V:3]C F, z |
[V:4]z z F, |
[V:1]_a3 |
[V:2]_d3- |
[V:3]z3 |
[V:4]B,, F, B,, |
[V:1]g3- |
[V:2]d3 |
[V:3]E, _E E- |
[V:4]B, _E, _E |
[V:1]g f2 |
[V:2]c2 B- |
[V:3]E _D D |
[V:4]_A, _D G, |
[V:1]e f =B |
[V:2]B _A F |
[V:3]C F, _A,/F,/ |
[V:4]C F, _D, |
[V:1]c e g |
[V:2]E E E |
[V:3]G, G, G, |
[V:4]C, G,, E,, |
[V:1]c' z c |
[V:2]E z2 |
[V:3]G, z2 |
[V:4]C,, z2 |
[V:1]F f/e/ f |
[V:2]A, A/B/ A |
[V:3]F, C C |
[V:4]F, F, F, |
[V:1]g c g |
[V:2]B z B |
[V:3]C z C |
[V:4]E, z E |
[V:1]c g c |
[V:2]B B B |
[V:3]G G G |
[V:4]E E E |
[V:1]a f b |
[V:2]A z2 |
[V:3]F z2 |
[V:4]F z2 |
[V:1]f c' f |
[V:2]B z c |
[V:3]F z F- |
[V:4]D z A, |
[V:1]d'2 c'//b//a//g// |
[V:2]F ^F G |
[V:3]F A B |
[V:4]B,3 |
[V:1]f g e |
[V:2]A B G |
[V:3]c E B |
[V:4]C2 C, |
[V:1]f z c |
[V:2]A A, A, |
[V:3]A C C |
[V:4]F,, F, F, |
[V:1]E c E |
[V:2]B, B, B, |
[V:3]G, G, G, |
[V:4]F, F, F, |
[V:1]A C c' |
[V:2]A, A, A |
[V:3]A, A, F |
[V:4]F,, F, F, |
[V:1]e c' e |
[V:2]B B B |
[V:3]G E G |
[V:4]F, F, F, |
[V:1]a z z |
[V:2]A z z |
[V:3]F z z |
[V:4]F,, z2 |
[V:1]z z F |
[V:2]z z _D |
[V:3]z z _A, |
[V:4]z z _D,, |
[V:1]F2 _G |
[V:2]_D2 _E |
[V:3]_A,2 _G, |
[V:4]_D,,3- |
[V:1]_A2 _d |
[V:2]F2 _A |
[V:3]F,2 F, |
[V:4]D,,3- |
[V:1]c2 B |
[V:2]_A2 _G |
[V:3]_G, B, C |
[V:4]D,,3- |
[V:1]_A2 A |
[V:2]F _D _C |
[V:3]_D F F, |
[V:4]D,,3- |
[V:1]_A2 _G |
[V:2]B, _D _E |
[V:3]_G, B, C |
[V:4]D,,3- |
[V:1]F2 _A |
[V:2]_A, _D C |
[V:3]_D z2 |
[V:4]D,,3 |
[V:1]G/_A/ B/c/ _d/B/ |
[V:2]B, G, G, |
[V:3]_D3 |
[V:4]_E,,3 |
[V:1]_A A A |
[V:2]_A, C C |
[V:3]C _E E |
[V:4]_A,, A,, A,, |
[V:1]G/_A/ B/c/ _d/B/ |
[V:2]B, G, G, |
[V:3]_D3 |
[V:4]_E,,3 |
[V:1]_A z _E |
[V:2]_A, z A, |
[V:3]C z2 |
[V:4]_A,, C, A,, |
[V:1]_F _E E |
[V:2]G,/_A,/ B,/C/ _D/B,/ |
[V:3]_D,3 |
[V:4]_E,,3 |
[V:1]_E z E |
[V:2]_A, C A, |
[V:3]C, _E, C, |
[V:4]_A,, A,, A,, |
[V:1]_F _E E |
[V:2]G,/_A,/ B,/C/ _D/B,/ |
[V:3]_D,3 |
[V:4]_E,,3 |
[V:1]_E z E |
[V:2]_A, z C |
[V:3]C, z _A, |
[V:4]_A,, z _G, |
[V:1]_E2 F |
[V:2]C2 _D |
[V:3]_A,3- |
[V:4]_G,2 F, |
[V:1]_A _G F |
[V:2]_E2 _D |
[V:3]A,3- |
[V:4]C,2 _D, |
[V:1]_E2 F |
[V:2]C2 _D |
[V:3]A,3 |
[V:4]_G,2 F, |
[V:1]_A _G z |
[V:2]_E z2 |
[V:3]_A, z2 |
[V:4]C, z2 |
[V:1]_G F z |
[V:2]_A, z2 |
[V:3]_D z2 |
[V:4]_D, z2 |
[V:1]F _E B |
[V:2]_D z2 |
[V:3]B, z2 |
[V:4]G, z2 |
[V:1]F _E F |
[V:2]C z _D |
[V:3]_A, z A, |
[V:4]_A, z _D,, |
[V:1]F2 _G |
[V:2]_D2 _E |
[V:3]_A,2 _G, |
[V:4]_D,,3- |
[V:1]_A2 _d |
[V:2]F2 _A |
[V:3]F,2 F, |
[V:4]D,,3- |
[V:1]c2 B |
[V:2]_A2 _G |
[V:3]_G, B, C |
[V:4]D,,3- |
[V:1]_A2 A |
[V:2]F _D _C |
[V:3]_D F F, |
[V:4]D,,3- |
[V:1]_A2 _G |
[V:2]B, _D _E |
[V:3]_G, B, C |
[V:4]D,,3- |
[V:1]F2 _A/F/ |
[V:2]_A,3 |
[V:3]_D3- |
[V:4]D,,2 _D,, |
[V:1]_E/F/ _G/_A/ B/G/ |
[V:2]B,3 |
[V:3]D3 |
[V:4]_G,, G,, G,, |
[V:1]_E E E |
[V:2]_D D D |
[V:3]B,3 |
[V:4]G,,3 |
[V:1]F _G _E |
[V:2]_D _E C |
[V:3]_A,2 _G, |
[V:4]_A,,3 |
[V:1]_D2 _A |
[V:2]_D2 _A, |
[V:3]F,3 |
[V:4]_D,,3- |
[V:1]C/_D/ _E/F/ _G/E/ |
[V:2]__B,3 |
[V:3]_G,3 |
[V:4]D,,3- |
[V:1]_D D D |
[V:2]_A,2 A, |
[V:3]F,3 |
[V:4]D,,3- |
[V:1]C/_D/ _E/F/ _G/E/ |
[V:2]__B,3 |
[V:3]_G,3 |
[V:4]D,,3- |
[V:1]_D z F |
[V:2]_A, z2 |
[V:3]F,2 _A, |
[V:4]D,,2 _A,, |
[V:1]_G3 |
[V:2]_E3 |
[V:3]__B, _A, A, |
[V:4]C,,/_D,,/ _E,,/F,,/ _G,,/C,,/ |
[V:1]F F F |
[V:2]F z2 |
[V:3]_A,2 A, |
[V:4]_D,, D,, _A,, |
[V:1]_G3 |
[V:2]_E3 |
[V:3]__B, _A, A, |
[V:4]C,,/_D,,/ _E,,/F,,/ _G,,/C,,/ |
[V:1]F z _A/F/ |
[V:2]F z z |
[V:3]_A, z z |
[V:4]_D,, z2 |
[V:1]_D _d/c/ d |
[V:2]F F F |
[V:3]_A, A, A, |
[V:4]_D, D, D, |
[V:1]_e _A z |
[V:2]_E z2 |
[V:3]_A, z2 |
[V:4]C, z2 |
[V:1]z z c/A/ |
[V:2]z3 |
[V:3]_E _A, z |
[V:4]z3 |
[V:1]F c/B/ c |
[V:2]_E E E |
[V:3]C F, F, |
[V:4]A,, A,, A,, |
[V:1]_d B z |
[V:2]_D z2 |
[V:3]F, z2 |
[V:4]B,, z2 |
[V:1]z z _d/B/ |
[V:2]F B, z |
[V:3]z3 |
[V:4]z3 |
[V:1]G/B/ _d/B/ G/F/ |
[V:2]_D D D |
[V:3]B, G, B, |
[V:4]B,, B,, B,, |
[V:1]E c z |
[V:2]C z2 |
[V:3]G, z2 |
[V:4]C, z2 |
[V:1]z3 |]
[V:2]z3 |]
[V:3]z3 |]
[V:4]G,, C,, z |]

